X:053
T:Morgiana in Ireland TS.053
M:6/8
L:1/8
Q:3/8=120
S:Thomas Sands’ MS,1810,Lincolnshire
R:jig
O:England;Lincolnshire
Z:vmp.Ruairidh Greig, 2011
K:G
D2DG2G|AGAB3|D2DG2G| AGA BGE|
D2DG2G|AGAB2d|edc BAG|AGA BGE||
d2d dcB|e2fg3|ded dcB|e2fg3|
d2d dcB|e2e efg|dec BcA|G2A BGE||
GAG Bdz|ABA cez|GAGG2A|B2c BGE|
GAG Bdz|cez Bdz|egz Bdz”bar line added”|G2A BGE|]

